X:78
T:Webâ€™s Quick Step.#6. JBs.078
S:Jas.Blackshaw MS, 1837, N.Shropshire
A:North Shropshire
Z:T. Weatherall 2006
M:6/8
L:1/8
Q:3/8=120
R:Quickstep
K:F
câ€™|câ€™af f2a|gec c2c|f2cb2a|a3g2câ€™|!
câ€™af f2a|gec c2c|dba gfe|f2ff2:|!
|:f|faa acâ€™câ€™|bgg g2f|egg gacâ€™|aff f2câ€™|!
câ€™aa a2câ€™|bgg g2b|acâ€™a bge|f2ff2:|

